epam-assets/icon-sources/18/navigation-hide.svg

<svg xmlns="http://www.w3.org/2000/svg" width="18" height="18" fill="none" viewBox="0 0 18 18">
  <path fill="#6C6F80" fill-rule="evenodd" d="m7.371 9.75 3.183 3.177-.852.852L4.95 9.027l4.752-4.752.846.852L7.425 8.25h8.325v1.5H7.371Zm-3.621 6h-1.5V2.25h1.5v13.5Z" clip-rule="evenodd"/>
</svg>

<svg width="18" height="18" viewBox="0 0 18 18" fill="none" xmlns="http://www.w3.org/2000/svg">
<g id="18/navigation-hide">
<path id="icon" fill-rule="evenodd" clip-rule="evenodd" d="M7.37122 9.75L10.554 12.927L9.702 13.779L4.95 9.027L9.702 4.275L10.548 5.127L7.425 8.25H15.75V9.75H7.37122ZM3.75 15.75H2.25V2.25H3.75V15.75Z" fill="#6C6F80"/>
</g>
</svg>
